src/components/Icon/assets/wifi-off.svg

<svg width="24" height="24" viewBox="0 0 24 24" fill="none" xmlns="http://www.w3.org/2000/svg">
<path fill-rule="evenodd" clip-rule="evenodd" d="M12.2912 10.1711C14.6232 10.2371 16.9332 11.1451 18.7082 12.9201L16.8752 14.7531L22.2532 20.1321L20.8392 21.5461L2.45421 3.16107L3.86821 1.74707L7.67221 5.55107C9.05921 5.12107 10.5092 4.87407 12.0032 4.87407C15.9432 4.87407 19.6472 6.40807 22.4342 9.19507L20.3122 11.3161C18.0932 9.09707 15.1422 7.87407 12.0032 7.87407C11.3762 7.87407 10.7602 7.93407 10.1532 8.03207L12.2912 10.1711ZM5.29721 12.9198C6.27821 11.9398 7.42421 11.2268 8.64521 10.7668L11.0952 13.2168C9.74921 13.4058 8.45121 14.0088 7.41821 15.0408L5.29721 12.9198ZM9.2155 16.8381L12.0025 19.6261L14.7905 16.8381C13.2515 15.2991 10.7555 15.2991 9.2155 16.8381ZM1.57291 9.19546C2.51591 8.25246 3.57091 7.46546 4.69791 6.81946L6.91891 9.04046C5.73991 9.60746 4.64591 10.3635 3.69391 11.3165L1.57291 9.19546Z" fill="#65676A"/>
</svg>

<svg xmlns="http://www.w3.org/2000/svg" width="24" height="24" viewBox="0 0 24 24">
    <path fill="#65676A" fill-rule="evenodd" d="M3.868 1.747l3.804 3.804c1.387-.43 2.837-.677 4.331-.677 3.94 0 7.644 1.534 10.431 4.321l-2.122 2.121c-2.219-2.219-5.17-3.442-8.309-3.442-.627 0-1.243.06-1.85.158l2.138 2.139c2.332.066 4.642.974 6.417 2.749l-1.833 1.833 5.378 5.379-1.414 1.414L2.454 3.161l1.414-1.414zm5.348 15.091c1.54-1.539 4.036-1.539 5.575 0l-2.789 2.788zm-.57-6.071l2.45 2.45c-1.347.189-2.645.792-3.678 1.824l-2.12-2.121c.98-.98 2.126-1.693 3.347-2.153zM4.697 6.819l2.22 2.221c-1.178.567-2.272 1.323-3.224 2.276l-2.121-2.12c.943-.944 1.998-1.73 3.125-2.377z"/>
</svg>
